react/assets/forus-webshop/resources/webshop-fijnder/assets/img/logo-normal.svg

<svg width="157" height="62" viewBox="0 0 157 62" fill="none" xmlns="http://www.w3.org/2000/svg">
<path d="M21.5335 30.8181V45.0059H28.9209V30.8181C28.9209 28.7913 27.2705 27.1542 25.2272 27.1542C23.1839 27.1542 21.5335 28.7913 21.5335 30.8181ZM117.124 18.6572C113.221 18.6572 110.051 21.8013 110.051 25.6731V28.2976V35.3135V37.938V37.964C110.077 41.8357 113.221 44.9539 117.124 44.9539H131.48V38.3797H117.596C117.334 38.3797 117.124 38.1718 117.124 37.912V35.5993H125.062C126.948 35.5993 128.703 34.0662 128.756 32.1953C128.808 30.2205 127.21 28.5834 125.219 28.5834H117.124V26.1148C117.124 25.855 117.334 25.6471 117.596 25.6471H128.494C130.485 25.6471 132.083 24.036 132.03 22.0352C131.978 20.1643 130.223 18.6312 128.336 18.6312H117.124V18.6572ZM149.713 18.5272C143.95 18.5272 139.208 22.9447 138.736 28.5314C138.71 28.7133 138.684 28.8952 138.684 29.0771V44.9279H145.862V29.4149C145.888 27.3361 147.591 25.6471 149.713 25.6471H152.961C154.926 25.6471 156.524 24.062 156.55 22.1132V22.0612C156.55 22.0352 156.55 22.0092 156.55 21.9832C156.498 20.0863 154.716 18.5272 152.804 18.5272H149.713ZM37.4085 18.1115V21.4635C37.4085 21.5155 37.4085 21.5675 37.4085 21.6194V43.9145C37.4085 49.865 32.536 54.6982 26.537 54.6982H26.4846C24.4937 54.6982 22.7909 56.2054 22.6861 58.1802C22.5813 60.259 24.2841 62 26.3536 62H26.9561C36.7798 62 44.7173 54.1006 44.7173 44.3822V27.1802V21.6454V18.1375H37.4085V18.1115ZM21.5073 21.6714C21.5073 23.7502 23.2101 25.4652 25.332 25.4652C27.4539 25.4652 29.1566 23.7762 29.1566 21.6714C29.1566 19.5926 27.4539 17.8776 25.332 17.8776C23.2101 17.8776 21.5073 19.5926 21.5073 21.6714ZM63.1596 17.9036C62.8191 17.9036 62.4785 17.9296 62.138 17.9556C56.4272 18.4753 52.1309 23.4124 52.1309 29.1031V44.9799H59.2826V28.9732C59.2826 27.1542 60.4876 25.4912 62.269 25.1274C64.7576 24.6077 66.9581 26.4786 66.9581 28.8432V41.7318C66.9581 43.7066 68.5561 45.2917 70.5471 45.2917C72.538 45.2917 74.136 43.7066 74.136 41.7318V28.8432C74.1621 22.7888 69.2372 17.9036 63.1596 17.9036ZM88.3606 34.3001V28.8432C88.3606 26.6865 90.0896 24.9715 92.2639 24.9715C94.3334 24.9715 96.0624 26.6865 96.0624 28.8432V34.3001C96.0624 36.4568 94.3334 38.1718 92.2639 38.1718C90.0896 38.1459 88.3606 36.4568 88.3606 34.3001ZM96.0362 11.979V15.513V18.5792C94.4382 18.0075 92.6045 17.7737 90.7445 18.0075C85.2433 18.6832 81.209 23.5943 81.209 29.1551V34.2741C81.209 40.5365 86.6055 45.6555 92.9188 45.2137C98.7606 44.8759 103.24 39.7569 103.24 33.9363V18.5792V15.7209V11.9531H96.0362V11.979ZM23.6292 0C13.5436 0 5.37027 8.08131 5.31788 18.0855H0V25.2573H5.31788V36.7167V41.368V45.0059H12.6529V41.6278C12.6529 41.5759 12.6529 41.5499 12.6529 41.4979V25.4392H12.7053C14.7486 25.4392 16.53 23.8801 16.6347 21.8273C16.7395 19.6446 14.9844 17.8516 12.8101 17.8516H12.6529C12.8887 12.005 17.7088 7.30176 23.6554 7.27577C25.6725 7.24979 27.3229 5.6907 27.3229 3.66387C27.3753 1.63705 25.6987 0 23.6292 0Z" fill="url(#paint0_linear_2001_42459)"/>
<defs>
<linearGradient id="paint0_linear_2001_42459" x1="0.0164514" y1="30.9815" x2="156.538" y2="30.9815" gradientUnits="userSpaceOnUse">
<stop stop-color="#EA5156"/>
<stop offset="0.1544" stop-color="#EA5656"/>
<stop offset="0.339" stop-color="#EC6454"/>
<stop offset="0.5391" stop-color="#EF7A4E"/>
<stop offset="0.7501" stop-color="#F4953F"/>
<stop offset="0.9677" stop-color="#FAB519"/>
<stop offset="1" stop-color="#FBBA09"/>
</linearGradient>
</defs>
</svg>

<svg xmlns="http://www.w3.org/2000/svg" width="157" height="62" fill="none" viewBox="0 0 157 62"><path fill="url(#a)" d="M21.534 30.818v14.188h7.387V30.818c0-2.027-1.65-3.664-3.694-3.664s-3.693 1.637-3.693 3.664m95.59-12.16c-3.903 0-7.073 3.143-7.073 7.015v12.291c.026 3.872 3.17 6.99 7.073 6.99h14.356V38.38h-13.884a.47.47 0 0 1-.472-.468v-2.313h7.938c1.886 0 3.641-1.533 3.694-3.404.052-1.974-1.546-3.612-3.537-3.612h-8.095v-2.468c0-.26.21-.468.472-.468h10.898a3.514 3.514 0 0 0 3.536-3.612c-.052-1.87-1.807-3.404-3.694-3.404h-11.212zm32.589-.13c-5.763 0-10.505 4.417-10.977 10.003-.026.182-.052.364-.052.546v15.85h7.178V29.416c.026-2.079 1.729-3.768 3.851-3.768h3.248a3.59 3.59 0 0 0 3.589-3.534v-.13c-.052-1.897-1.834-3.456-3.746-3.456zm-112.304-.416v25.802c0 5.951-4.873 10.784-10.872 10.784h-.052c-1.991 0-3.694 1.507-3.799 3.482-.105 2.079 1.598 3.82 3.668 3.82h.602c9.824 0 17.761-7.9 17.761-17.618V18.137h-7.309zm-15.902 3.56c0 2.078 1.703 3.793 3.825 3.793s3.825-1.689 3.825-3.794c0-2.078-1.703-3.793-3.825-3.793s-3.825 1.715-3.825 3.793m41.653-3.768c-.34 0-.681.026-1.022.052-5.71.52-10.007 5.456-10.007 11.147V44.98h7.152V28.973c0-1.819 1.205-3.482 2.986-3.846 2.489-.52 4.69 1.352 4.69 3.716v12.889a3.563 3.563 0 0 0 3.588 3.56 3.563 3.563 0 0 0 3.589-3.56V28.843c.026-6.054-4.899-10.94-10.976-10.94M88.36 34.3v-5.457c0-2.157 1.73-3.872 3.904-3.872 2.07 0 3.798 1.715 3.798 3.872V34.3c0 2.157-1.729 3.872-3.798 3.872-2.174-.026-3.903-1.715-3.903-3.872m7.676-22.321v6.6c-1.598-.572-3.431-.805-5.291-.572-5.502.676-9.536 5.587-9.536 11.148v5.12c0 6.261 5.397 11.38 11.71 10.939 5.842-.338 10.321-5.457 10.321-11.278V11.953h-7.204zM23.63 0C13.544 0 5.37 8.081 5.318 18.086H0v7.171h5.318v19.749h7.335V25.439h.052c2.044 0 3.825-1.559 3.93-3.612.104-2.182-1.65-3.975-3.825-3.975h-.157c.236-5.847 5.056-10.55 11.002-10.576 2.017-.026 3.668-1.585 3.668-3.612C27.375 1.637 25.699 0 23.629 0"/><defs><linearGradient id="a" x1=".016" x2="156.538" y1="30.982" y2="30.982" gradientUnits="userSpaceOnUse"><stop stop-color="#ea5156"/><stop offset=".154" stop-color="#ea5656"/><stop offset=".339" stop-color="#ec6454"/><stop offset=".539" stop-color="#ef7a4e"/><stop offset=".75" stop-color="#f4953f"/><stop offset=".968" stop-color="#fab519"/><stop offset="1" stop-color="#fbba09"/></linearGradient></defs></svg>
